X: 127
T:O Keefes of Dublin
R:Jig
N:Ben plays the A part syncopated, as though there 
N:eighth notes per bar rather than t
N:Follo
M:6/8
L:1/8
Q:3/8=120
K:G
EG DG EG|DE GB2 G|EG DG EG|ce dA2 G|
EG DG EG|DE GB2 G|ced gdB|AcB ~G3:|
|:dee dgd|dee dBG|dee dgd|abg ~e3|
dee dgd|dee dBG|ced gdB|AcB ~G3:|
